X: 20927
T: Journey By Train, The
R: reel
M: 4/4
K: Edorian
|:E2BE DE (3FED|E2BE ADFD|E2BE DEFA|B2df efd[Ac]|
B2FE DE (3FED|E2FE DBAB|DEFA B2Ad|1 B2AF EDBF:|2 B2AF edfe||
|:e2be Befe|befe dBAB|d2(3fed AdFD|BdAB de(3fed|
d2fe bede|gefd dcde|fABF ABAd|1 B2AF EDBF:|2 B2AF EDBE||

